!!!COM: Mozart, Wolfgang Amadeus
!!!OTL: Quartet K. 171
!!!ONM: 
!!!OMV: 1a
!!!CDT: 1756/1/27/-1791/12/5/
!!!OCY: \O3sterreich
**kern	**kern	**kern	**kern
*clefC	*clefF	*clefG	*clefG
*k[b-e-a-]	*k[b-e-a-]	*k[b-e-a-]	*k[b-e-a-]
*E-:	*E-:	*E-:	*E-:
*M4/4	*M4/4	*M4/4	*M4/4
=1	=1	=1	=1
4E-	4e-	4e-	4e-
4BB	4B	4B	4B
4C	4c	4c	4c
4r	4r	4r	4r
=2	=2	=2	=2
4E-	4e-	4e-	4e-
4AA	4A	4A	4A
4BB-	4B-	4B-	4B-
4r	4r	4r	4r
=3	=3	=3	=3
2.r	2.r	2.r	4cc
.	.	.	4f
.	.	.	4a-
4AA-	4F	[4B-	4d
=4	=4	=4	=4
4GG	4G	8B-]	8e-
.	.	4g	4b-
4D	2B-	.	.
.	.	8f	8a-
4E-	.	8f	8a-
.	.	8e-	8g
4BB-	4B-	4d	4f
=5	=5	=5	=5
4E-	4e-	4e-	4e-
4BB	4B	4B	4B
4C	4c	4c	4c
4r	4r	4r	4r
=6	=6	=6	=6
4E-	4e-	4e-	4e-
4BB-	4B-	4B-	4B-
4AA	4A	4A	4A
4r	4r	4r	4r
=7	=7	=7	=7
2.r	2.r	2.r	4gg
.	.	.	4cc
.	.	.	4ee-
4E-	4c	[4f	4a
=8	=8	=8	=8
8D	4.B-	8f]	8b-
8E-	.	8g	8ee-
4F	.	4f	8dd
.	8A	.	8cc
8BB-	4B-	16r	4b-
.	.	16f	.
8r	.	16g	.
.	.	16f	.
8BB-	4r	16e-	8r
.	.	16d	.
8r	.	16c	8dd
.	.	16B-	.
=9	=9	=9	=9
8C	2r	16r	16.ee-
.	.	16e-	.
.	.	.	32cc
8r	.	16f	8a
.	.	16e-	.
8F	.	16d	8r
.	.	16c	.
8r	.	16B-	8ff
.	.	16A	.
8BB-	[2F	16r	8ee-
.	.	16f	.
8r	.	16g	8dd
.	.	16f	.
8BB-	.	16e-	8r
.	.	16d	.
8r	.	16c	8dd
.	.	16B-	.
=10	=10	=10	=10
8C	2F]	16r	16.ee-
.	.	16e-	.
.	.	.	32cc
8r	.	16f	8a
.	.	16e-	.
8FF	.	16d	8r
.	.	16c	.
8r	.	16B-	8ff
.	.	16A	.
8BB-	[2B-	16r	8ee-
.	.	16f	.
8r	.	16g	8dd
.	.	16f	.
8BB-	.	16e-	8r
.	.	16d	.
8r	.	16c	8b-
.	.	16B-	.
=11	=11	=11	=11
8A-	1B-_	16r	4.b-
.	.	16f	.
8r	.	16g	.
.	.	16f	.
8A-	.	16e-	.
.	.	16d	.
8r	.	16c	8b-
.	.	16B-	.
8G	.	16r	16b-
.	.	16e-	16ee-
8r	.	16g	8b-
.	.	16b-	.
8E-	.	16a-	8r
.	.	16g	.
8r	.	16f	[8gg
.	.	16e-	.
=12	=12	=12	=12
8F	1B-]	16r	8gg]
.	.	16e-	.
8r	.	16d	4aa-
.	.	16e-	.
8BB-	.	16f	.
.	.	16g	.
8r	.	16a-	8dd
.	.	16f	.
8GG	.	16r	8ee-
.	.	16e-	.
8r	.	16g	8b-
.	.	16b-	.
8EE-	.	16a-	8r
.	.	16g	.
8r	.	16f	8b-
.	.	16e-	.
=13	=13	=13	=13
8C	1F	16r	4ee-
.	.	16A	.
8r	.	16c	.
.	.	16e-	.
8FF	.	16d	8r
.	.	16c	.
8r	.	16B-	8e-
.	.	16A	.
8BB-	.	16r	4d
.	.	16B-	.
8r	.	16d	.
.	.	16f	.
8BB-	.	16e-	8r
.	.	16d	.
8r	.	16c	8b-
.	.	16B-	.
=14	=14	=14	=14
4C	4F	4A	4ee-
8r	8r	8r	8r
8C	4.F	8A	8e-
4BB-	.	4A-	4d
4r	4r	4r	4r
==	==	==	==
*-	*-	*-	*-
!!!RWG: This file only contains pitch and duration data.
!!!RWG: Transposing instruments are not transposed.
!!!RWG: Durations of rests and tied notes may be interpreted.
!!!RWG: Key is interpreted using the Humdrum key tool.
!!!SCA: K\o3chel 171
!!!YOR: Breitkopf & H\a3rtel Edition
!!!AGN: chamber; string quartet
!!!AFT: stage1
!!!ENC: F. Bennion
!!!END: 1997/04/15
!!!AST: classical
!!!YEC: Copyright 1994, Center for Computer Assisted Research in the Humanities
!!!YEM: Rights to all derivative electronic formats reserved.
!!!YEM: Refer to licensing agreement for further details.
!!!YEN: United States of America
!!!EED: W.B. Hewlett
!!!KEY: 3710765859
!!!EMD: Converted from MuseData to Humdrum Aug 9, 1999, by Bret Aarden using muse2kern.
!!!VTS: 2025374459
